svgs/sharp-regular/golf-club.svg

<svg xmlns="http://www.w3.org/2000/svg" viewBox="0 0 512 512"><!--! Font Awesome Pro 6.6.0 by @fontawesome - https://fontawesome.com License - https://fontawesome.com/license (Commercial License) Copyright 2024 Fonticons, Inc. --><path d="M466.5 13.3L293 360.4 31 281 0 271.6 0 304 0 488l0 24 24 0 232 0 14.8 0 6.6-13.3 232-464L466.5 13.3zM48 336.3L271.2 404l-30 60L48 464l0-16 32 0 16 0 0-32-16 0-32 0 0-16 32 0 16 0 0-32-16 0-32 0 0-31.7z"/></svg>

<svg xmlns="http://www.w3.org/2000/svg" viewBox="0 0 512 512"><!--! Font Awesome Pro 6.4.0 by @fontawesome - https://fontawesome.com License - https://fontawesome.com/license (Commercial License) Copyright 2023 Fonticons, Inc. --><path d="M466.5 13.3L293 360.4 31 281 0 271.6V304 488v24H24 256h14.8l6.6-13.3 232-464L466.5 13.3zM48 336.3L271.2 404l-30 60H48V448H80 96V416H80 48V400H80 96V368H80 48V336.3z"/></svg>
